X: 08091
T: PETER COLBY'S WALTZ
C: Bob McQuillen 29 Aug 90
B: Bob's Note Book 8 #91
%R: waltz
Z: 2021 John Chambers <jc:trillian.mit.edu>
M: 3/4
L: 1/4
K: G
GA \
| "G"BB>c | BGA | BG>E | D2G | "D7"AA>B | AGA | BcB | Adc |\
| "G"BB>c | BGA | BG>E | D2G | "D7"AA>G | FBA | "G"G3- | G :|
|: gf \
| "C"e>ce | gfe | "G"dB>e | d2d | "C"e>cd | "A7"efg | "D7"b3 | a3 |\
| "G"g>ab | agf | "C"e>fg | age | "G"dBc | "D7"B2A | "G"G3- | G :|
%%begintext align
%% It has
%% taken me much too long to write this tune
%% for Pete. I only wish he could hear it. Pete
%% was a good friend of Eileen Roys of Stevensville, MD.
%% They met in Autoharp class at Augusta. Perhaps
%% you'll play this on your autoharp, Eileen. I hope you like it.
%%endtext

%%sep 1 1 500

%%sep 1 1 500

